material/.icons/material/clipboard-pulse-outline.svg

<svg xmlns="http://www.w3.org/2000/svg" viewBox="0 0 24 24"><path d="M19 3h-4.18C14.4 1.84 13.3 1 12 1c-1.3 0-2.4.84-2.82 2H5a2 2 0 00-2 2v14a2 2 0 002 2h14a2 2 0 002-2V5a2 2 0 00-2-2m-7 0a1 1 0 011 1 1 1 0 01-1 1 1 1 0 01-1-1 1 1 0 011-1M5 15h3.11l1.51-2.85.76 5.77 3.69-4.71L15.89 15H19v4H5v-4m14-1.54h-2.47l-2.6-2.6-2.49 3.19-.94-6.97-3.33 6.38H5V5h2v1h10V5h2v8.46z"/></svg>

<?xml version="1.0" encoding="UTF-8"?><!DOCTYPE svg PUBLIC "-//W3C//DTD SVG 1.1//EN" "http://www.w3.org/Graphics/SVG/1.1/DTD/svg11.dtd"><svg xmlns="http://www.w3.org/2000/svg" xmlns:xlink="http://www.w3.org/1999/xlink" version="1.1" id="mdi-clipboard-pulse-outline" width="24" height="24" viewBox="0 0 24 24"><path d="M19,3H14.82C14.4,1.84 13.3,1 12,1C10.7,1 9.6,1.84 9.18,3H5A2,2 0 0,0 3,5V19A2,2 0 0,0 5,21H19A2,2 0 0,0 21,19V5A2,2 0 0,0 19,3M12,3A1,1 0 0,1 13,4A1,1 0 0,1 12,5A1,1 0 0,1 11,4A1,1 0 0,1 12,3M5,15H8.11L9.62,12.15L10.38,17.92L14.07,13.21L15.89,15H19V19H5V15M19,13.46H16.53L13.93,10.86L11.44,14.05L10.5,7.08L7.17,13.46H5V5H7V6H17V5H19V6L19,13.46Z" /></svg>
